static/images/matrix-logo-white.svg

<?xml version="1.0" encoding="UTF-8"?>
<svg width="75px" height="32px" viewBox="0 0 75 32" version="1.1" xmlns="http://www.w3.org/2000/svg" xmlns:xlink="http://www.w3.org/1999/xlink">
    <!-- Generator: Sketch 55 (78076) - https://sketchapp.com -->
    <title>matrix logo white</title>
    <desc>Created with Sketch.</desc>
    <g id="Page-1" stroke="none" stroke-width="1" fill="none" fill-rule="evenodd">
        <g id="matrix-logo-white" fill="#FFFFFF" fill-rule="nonzero">
            <polygon id="Path" points="0.936314791 0.73220178 0.936314791 31.2495668 3.12942478 31.2495668 3.12942478 31.9817685 0.094721871 31.9817685 0.094721871 9.49554896e-05 3.12942478 9.49554896e-05 3.12942478 0.73220178"></polygon>
            <path d="M9.38571429,10.4066469 L9.38571429,11.951003 L9.42961441,11.951003 C9.8409292,11.3631335 10.3363464,10.9066825 10.9167193,10.5830742 C11.496713,10.2600356 12.1615676,10.0978516 12.9104298,10.0978516 C13.6298989,10.0978516 14.287263,10.237911 14.8819532,10.5170801 C15.4768331,10.796724 15.9285398,11.2891632 16.2369785,11.9952522 C16.5745259,11.4953116 17.0334387,11.0539585 17.6138116,10.6715727 C18.1938053,10.2893769 18.8803729,10.0978516 19.6736094,10.0978516 C20.2757901,10.0978516 20.8335967,10.1715371 21.3480721,10.3186231 C21.8617889,10.4657092 22.302402,10.7010089 22.6696271,11.0245223 C23.0364728,11.3483205 23.3228192,11.7711573 23.5288559,12.2928427 C23.7343236,12.8154777 23.8372946,13.4438932 23.8372946,14.1795134 L23.8372946,21.8126053 L20.7089128,21.8125104 L20.7089128,15.3485104 C20.7089128,14.9663145 20.694311,14.6059585 20.664823,14.2674421 C20.6351454,13.9294006 20.5547408,13.6354184 20.4225664,13.3850208 C20.2902971,13.1351929 20.0954488,12.936451 19.83878,12.78927 C19.581732,12.6427537 19.2328066,12.5687834 18.7922882,12.5687834 C18.3517699,12.5687834 17.9955436,12.6538635 17.723799,12.8224095 C17.4518647,12.9918101 17.2390961,13.2125816 17.085019,13.4843442 C16.930847,13.7567715 16.8279709,14.0654718 16.7766751,14.4112997 C16.725,14.7567478 16.6994943,15.106184 16.6994943,15.4591335 L16.6994943,21.8126053 L13.571397,21.8126053 L13.571397,15.4149792 C13.571397,15.0767478 13.5637168,14.7420297 13.5495891,14.4112997 C13.5346081,14.0801899 13.4724083,13.7750979 13.3620417,13.495454 C13.2518647,13.2162849 13.0682048,12.9918101 12.8112516,12.8224095 C12.5542035,12.6538635 12.1760746,12.5687834 11.6767699,12.5687834 C11.5297092,12.5687834 11.3351454,12.6019228 11.0930784,12.6682967 C10.8507269,12.7344807 10.6155815,12.859727 10.3881163,13.043276 C10.160177,13.2272997 9.96580278,13.4920356 9.80423515,13.8373887 C9.64257269,14.1832166 9.56188369,14.6352047 9.56188369,15.1940178 L9.56188369,21.8125104 L6.43388116,21.8126053 L6.43388116,10.4066469 L9.38571429,10.4066469 Z" id="Path"></path>
            <path d="M25.8417193,12.0835608 C26.1645702,11.5980534 26.5759798,11.208546 27.0754741,10.914089 C27.5745891,10.6200119 28.1360936,10.4105401 28.7604614,10.2853887 C29.3845449,10.1605223 30.0125158,10.0977567 30.6439949,10.0977567 C31.2168774,10.0977567 31.7967762,10.1383976 32.3842604,10.2190148 C32.9716498,10.3002018 33.5078382,10.4584926 33.9925411,10.6935074 C34.4771492,10.9287122 34.8735777,11.2562136 35.1821113,11.6751573 C35.4905499,12.0942908 35.6447219,12.6495905 35.6447219,13.3409614 L35.6447219,19.2751098 C35.6447219,19.7905282 35.674115,20.2826825 35.7329962,20.7532819 C35.7913085,21.2241662 35.8942794,21.5771157 36.0412453,21.8123205 L32.869153,21.8123205 C32.8102718,21.6357033 32.7623894,21.4557626 32.725885,21.2717389 C32.6889064,21.0881899 32.6632111,20.9006528 32.648799,20.7093175 C32.1493995,21.2241662 31.5617257,21.5845223 30.8866308,21.7904807 C30.2108723,21.9958694 29.5206068,22.099181 28.8156448,22.099181 C28.2720607,22.099181 27.7653603,22.0329021 27.2954488,21.900724 C26.8253477,21.7682611 26.4143173,21.5624926 26.0618837,21.2825638 C25.7093552,21.0035846 25.4340076,20.6505401 25.2357459,20.224095 C25.0374842,19.7976499 24.9382111,19.2897329 24.9382111,18.7016736 C24.9382111,18.0547418 25.0518963,17.5213769 25.2799305,17.1026231 C25.5073957,16.6832047 25.8009482,16.3487715 26.1612516,16.0984688 C26.5208913,15.848546 26.9320164,15.6610089 27.3948167,15.5360475 C27.8573325,15.411181 28.3235461,15.3121424 28.7935525,15.2381721 C29.2635588,15.1648665 29.7260746,15.1058991 30.1814791,15.0618398 C30.6366941,15.0175905 31.040708,14.9513116 31.3931416,14.8630979 C31.74567,14.7748843 32.0244311,14.6464095 32.2302781,14.4771039 C32.4355563,14.3079881 32.5310367,14.0616736 32.5166245,13.7378754 C32.5166245,13.3998338 32.4616308,13.1312047 32.3514539,12.9327478 C32.2413717,12.7342908 32.0944058,12.5796083 31.9109355,12.469365 C31.7272756,12.3591217 31.5143173,12.2855312 31.2721555,12.2485935 C31.0297092,12.2123205 30.7687737,12.1935193 30.4901075,12.1935193 C29.8732301,12.1935193 29.388622,12.3259822 29.0360936,12.5907181 C28.6837547,12.855454 28.4777181,13.2969021 28.4192162,13.9143976 L25.2911188,13.9143976 C25.3349241,13.1792522 25.5182048,12.5685935 25.8417193,12.0835608 Z M32.0208281,16.5068724 C31.8226612,16.5729614 31.6096081,16.6279407 31.3821429,16.6721899 C31.1543932,16.7163442 30.9158344,16.7531869 30.666182,16.7824332 C30.4163401,16.8121543 30.1666877,16.8487122 29.917225,16.8928665 C29.6820796,16.9366409 29.4508217,16.9959881 29.2234513,17.0691988 C28.995512,17.1431691 28.7972503,17.2422077 28.6285714,17.3671691 C28.4594185,17.4922255 28.323641,17.6506113 28.2208597,17.8413769 C28.1179836,18.0326172 28.0666877,18.2754184 28.0666877,18.5694955 C28.0666877,18.8486647 28.1179836,19.0843442 28.2208597,19.2751098 C28.323641,19.466635 28.4634008,19.6173294 28.6395702,19.7275727 C28.8157396,19.837816 29.0212073,19.9152047 29.2565424,19.9590742 C29.4912137,20.0033234 29.7335651,20.0253531 29.9833123,20.0253531 C30.6000948,20.0253531 31.0772124,19.9226113 31.4153287,19.7164629 C31.7529709,19.5107893 32.0024336,19.2642849 32.1642857,18.9772344 C32.3256637,18.6905638 32.4249368,18.4006647 32.4617257,18.1061128 C32.4981353,17.8120356 32.5167193,17.5766409 32.5167193,17.4002136 L32.5167193,16.2307418 C32.3843552,16.3487715 32.2191846,16.4405935 32.0208281,16.5068724 Z" id="Shape"></path>
            <path d="M43.8835335,10.4066469 L43.8835335,12.5025045 L41.5926675,12.5025045 L41.5926675,18.150362 C41.5926675,18.679549 41.6806574,19.0326884 41.8570164,19.2090208 C42.0329962,19.385543 42.3857143,19.4737567 42.9144121,19.4737567 C43.0906764,19.4737567 43.2593552,19.4665401 43.4210177,19.451727 C43.5824905,19.4372938 43.7367573,19.4148843 43.8835335,19.385638 L43.8835335,21.8124154 C43.6191846,21.8565697 43.3253477,21.885816 43.002402,21.900819 C42.6793616,21.9149674 42.363622,21.9226588 42.0551833,21.9226588 C41.5705752,21.9226588 41.1114728,21.8894243 40.6783502,21.8231454 C40.2449431,21.7571513 39.8632111,21.6287715 39.5328698,21.4373412 C39.2023388,21.2463858 38.9415929,20.9739585 38.7508217,20.6210089 C38.5596713,20.2683442 38.4643805,19.8048665 38.4643805,19.2309555 L38.4643805,12.5025045 L36.5699431,12.5025045 L36.5699431,10.4066469 L38.4643805,10.4066469 L38.4643805,6.98710979 L41.5925727,6.98710979 L41.5925727,10.4066469 L43.8835335,10.4066469 Z" id="Path"></path>
            <path d="M48.3553729,10.4066469 L48.3553729,12.5246291 L48.3994627,12.5246291 C48.5460493,12.1713947 48.7442162,11.8444629 48.994153,11.5426944 C49.2439001,11.2414955 49.5300569,10.9838813 49.8531922,10.7706113 C50.176043,10.5577211 50.5213654,10.3922136 50.8888748,10.274184 C51.2556258,10.156724 51.637737,10.0976617 52.0343552,10.0976617 C52.2399178,10.0976617 52.4672882,10.1346944 52.717225,10.208095 L52.717225,13.1203798 C52.5701643,13.0907537 52.3939001,13.0649258 52.1885272,13.0430861 C51.982775,13.0209614 51.7846081,13.0098516 51.5936473,13.0098516 C51.0208597,13.0098516 50.5362516,13.1057567 50.1399178,13.2967122 C49.7433944,13.4879525 49.4240518,13.7487953 49.1816056,14.0798101 C48.9393489,14.4109199 48.7664033,14.796724 48.6637168,15.2380772 C48.5610303,15.6791454 48.5096397,16.1574362 48.5096397,16.672095 L48.5096397,21.8123205 L45.3815424,21.8123205 L45.3815424,10.4066469 L48.3553729,10.4066469 Z" id="Path"></path>
            <path d="M54.0388748,8.64161424 L54.0388748,6.06043917 L57.1672566,6.06043917 L57.1672566,8.64161424 L54.0388748,8.64161424 Z M57.1672566,10.4066469 L57.1672566,21.8124154 L54.0388748,21.8124154 L54.0388748,10.4066469 L57.1672566,10.4066469 Z" id="Shape"></path>
            <polygon id="Path" points="58.7972503 10.4066469 62.365866 10.4066469 64.37067 13.3849258 66.3533818 10.4066469 69.8119153 10.4066469 66.0670354 15.7456142 70.2747155 21.8125104 66.7058154 21.8125104 64.3265803 18.216546 61.9472503 21.8125104 58.4449115 21.8125104 62.542225 15.8119881"></polygon>
            <polygon id="Path" points="74.0938369 31.2495668 74.0938369 0.73220178 71.9007269 0.73220178 71.9007269 9.49554896e-05 74.9356195 9.49554896e-05 74.9356195 31.9817685 71.9007269 31.9817685 71.9007269 31.2495668"></polygon>
        </g>
    </g>
</svg>

<svg xmlns="http://www.w3.org/2000/svg" width="75" height="32" fill="#FFF"><path d="M.936.732V31.25h2.193v.732H.095V0h3.034v.732zM9.386 10.407v1.544h.044a4.461 4.461 0 0 1 1.487-1.368c.58-.323 1.245-.485 1.993-.485.72 0 1.377.14 1.972.42.595.279 1.047.771 1.355 1.477.338-.5.796-.941 1.377-1.323.58-.383 1.266-.574 2.06-.574.602 0 1.16.074 1.674.22.514.148.954.383 1.322.707.366.323.653.746.859 1.268.205.522.308 1.15.308 1.887v7.633H20.71v-6.464c0-.383-.015-.743-.044-1.082a2.305 2.305 0 0 0-.242-.882 1.473 1.473 0 0 0-.584-.596c-.257-.146-.606-.22-1.047-.22-.44 0-.796.085-1.068.253-.272.17-.485.39-.639.662a2.654 2.654 0 0 0-.308.927 7.074 7.074 0 0 0-.078 1.048v6.354h-3.128v-6.398c0-.338-.007-.673-.021-1.004a2.825 2.825 0 0 0-.188-.916 1.411 1.411 0 0 0-.55-.673c-.258-.168-.636-.253-1.135-.253a2.33 2.33 0 0 0-.584.1 1.94 1.94 0 0 0-.705.374c-.228.184-.422.449-.584.794-.161.346-.242.798-.242 1.357v6.619H6.434V10.407h2.952ZM25.842 12.084a3.751 3.751 0 0 1 1.233-1.17 5.37 5.37 0 0 1 1.685-.629 9.579 9.579 0 0 1 1.884-.187c.573 0 1.153.04 1.74.121.588.081 1.124.24 1.609.475.484.235.88.562 1.19.981.308.42.462.975.462 1.666v5.934c0 .516.03 1.008.088 1.478.058.471.161.824.308 1.06H32.87a4.435 4.435 0 0 1-.22-1.104c-.5.515-1.087.876-1.762 1.081a7.084 7.084 0 0 1-2.071.31c-.544 0-1.05-.067-1.52-.2a3.472 3.472 0 0 1-1.234-.617 2.87 2.87 0 0 1-.826-1.059c-.199-.426-.298-.934-.298-1.522 0-.647.114-1.18.342-1.6.227-.419.52-.753.881-1.004.36-.25.771-.437 1.234-.562.462-.125.929-.224 1.399-.298.47-.073.932-.132 1.387-.176.456-.044.86-.11 1.212-.199.353-.088.631-.217.837-.386.206-.169.301-.415.287-.74 0-.337-.055-.606-.166-.804a1.217 1.217 0 0 0-.44-.464 1.737 1.737 0 0 0-.639-.22 5.292 5.292 0 0 0-.782-.055c-.617 0-1.101.132-1.454.397-.352.264-.558.706-.617 1.323h-3.128c.044-.735.227-1.345.55-1.83Zm6.179 4.423a5.095 5.095 0 0 1-.639.165 9.68 9.68 0 0 1-.716.11c-.25.03-.5.067-.749.11a5.616 5.616 0 0 0-.694.177 2.057 2.057 0 0 0-.594.298c-.17.125-.305.284-.408.474-.103.192-.154.434-.154.728 0 .28.051.515.154.706.103.192.242.342.419.453.176.11.381.187.617.231.234.044.477.066.726.066.617 0 1.094-.102 1.432-.309.338-.205.587-.452.75-.739.16-.286.26-.576.297-.87.036-.295.055-.53.055-.707v-1.17a1.4 1.4 0 0 1-.496.277ZM43.884 10.407v2.096h-2.291v5.647c0 .53.088.883.264 1.059.176.177.529.265 1.057.265.177 0 .345-.007.507-.022.161-.015.316-.037.463-.066v2.426a7.49 7.49 0 0 1-.882.089 21.67 21.67 0 0 1-.947.022c-.484 0-.944-.034-1.377-.1a3.233 3.233 0 0 1-1.145-.386 2.04 2.04 0 0 1-.782-.816c-.191-.353-.287-.816-.287-1.39v-6.728H36.57v-2.096h1.894v-3.42h3.129v3.42h2.29ZM48.355 10.407v2.118h.044a3.907 3.907 0 0 1 1.454-1.754 4.213 4.213 0 0 1 1.036-.497 3.734 3.734 0 0 1 1.145-.176c.206 0 .433.037.683.11v2.912a5.862 5.862 0 0 0-.528-.077 5.566 5.566 0 0 0-.595-.033c-.573 0-1.058.096-1.454.287a2.52 2.52 0 0 0-.958.783 3.143 3.143 0 0 0-.518 1.158 6.32 6.32 0 0 0-.154 1.434v5.14h-3.128V10.407h2.973ZM54.039 8.642V6.06h3.128v2.582H54.04Zm3.128 1.765v11.405H54.04V10.407h3.128ZM58.797 10.407h3.569l2.005 2.978 1.982-2.978h3.459l-3.745 5.339 4.208 6.067h-3.569l-2.379-3.596-2.38 3.596h-3.502l4.097-6.001zM74.094 31.25V.732h-2.193V0h3.035v31.982h-3.035v-.732z"/></svg>
